X: 1140
T: İhtiyatlar Silah Çatmış
C: Osman Pehlivan
O: Turkey
F: http://compmusic.upf.edu/node/140
N: hicaz--turku--aksak--ihtiyatlar_silah--
N: makam= hicaz
N: form= turku
N: usul= aksak = 9/8
M: 9/8
L: 1/16
K: C _7/8B ^f ^c 
Q: 1/4=162
%%MIDI tuningsystem comma53
z8 FGFG A2B2 G2 | A2 AGFG A2FG FGA2 B2G2  | 
w:   |   | 
A4 A2z2 FGFG A2B2 G2 | A2 AGFG A2FG FGA2 B2G2  | 
w:   |   | 
A6e=f ed^3/4cd e3f ed | e4^3/4c2 d2e4e6  | \
w:   |  *  İh ti yat lar   | 
e2e2 e2g2 =f2e2 d4 c2 | 
w:  si lah  si lah  çat *  mış   | 
d4e2 ^3/4f2g4f4e2  | a6g2 ^3/4f2ef g4 fe | \
w:  ah  yo lun_ üs tü ne    |  hey_ a man_ *  *  *  a man    | 
e6 e=fed cde3fed  | 
w:  SAZ  | 
e4 ^3/4c2d2 e4 e6 | e2 e2e2 g2=f2 e2d4c2  | \
w:  *  İh ti yat lar   |  si lah  si lah  çat *  mış   | 
d4 e2^3/4f2 g4 f4 e2 | a6 g2^3/4f2 efg4fe  | 
w:  ah  yo lun_ üs tü ne    |  hey_ a man_ *  *  *  a man    | 
e6e=f edcd e3f ed | e4a2 a2a4a4g2  | \
w:  SAZ  |  *  Naz lı  yâ rim   | 
g2g2 g2^3/4f2 f2ef ag=fe d2 | 
w:  ge li  ge li ver *  *  miş   | 
e2 =fge2 d2c2 B2A4A2  | B2A2 B2d2 c2BA dcBA GF | 
w:  sol  *  *  di zin_ üs *  tü ne    |  a daş_ a man_ am *  *  man    | 
G4F2 G2A4A6  | g2g2 g2^3/4f2 f2ef ag=fe d2 | \
w:  *  Naz lı  yâ rim   |  ge li  ge li ver *  *  miş   | 
e2 =fge2 d2c2 B2dc B2BA  | 
w:  sol  *  *  di zin_ üs *  tü  | 
A6e=f edcd e3f ed | e4c2 d2e4e6  | e4 e2g2 =f2e2 d4 c2 | 
w:  ne   SAZ  |  *  Gö zün  ya şı   |  dur maz  *  a *  kar   | 
d4e2 ^3/4f2g4f4e2  | a6g2 ^3/4f2ef g4 fe | \
w:  gül  yü zün_ üs tü ne    |  hey_ a man_ *  *  *  a  | 
e6 e=fed cde3fed  | 
w:  man   SAZ  | 
e4 c2d2 e4 e6 | e4e2 g2=f2 e2d4c2  | \
w:  *  Gö zün  ya şı   |  dur maz  *  a *  kar   | 
d4 e2^3/4f2 g4 f4 e2 | a6 g2^3/4f2 efg4fe  | 
w:  gül  yü zün_ üs tü ne    |  hey_ a man_ *  *  *  a  | 
e6e=f edcd e3f ed | e4a2 a2a4a4g2  | \
w:  man   SAZ  |  *  O  da  be nim   | 
g4 g2g^3/4f f2ef ag=fe d2 | 
w:  naz lı  da  *  yâ *  *  rim   | 
e2 =fge2 d2c2 B2A4A2  | B2A2 B2d2 c2BA dcBA GF | 
w:  ne  *  *  ol *  du  *  sa na    |  a daş_ a man  a *  *  man    | 
G4F2 G2A4A6  | g2g2 g2^3/4f2 f2ef ag=fe d2 | \
w:  *  Şim den  ge ru   |  ha ram_ *  *  ol *  *  sun   | 
e2 =fge2 d2c2 B2dc B2BA  | 
w:  şu  *  *  yer *  ler  *  ba  | 
A16 z2 | |


